X:1
T:French
T:French
%%score { 1 | 2 }
L:1/8
M:4/4
K:Db
V:1 treble-8 nm="Piano" snm="Pno."
V:2 bass 
V:1
 z8 | z8 | z2 z2 z2 A2 | d2 c2 B2 A2 | c4 d2 d2 | d4 c4 | d4 d2 d2 | d4 d2 c2 | d6 A2 | z8 | z8 | %11
w: ||No|threu ni kes pe|roan sue Ju|rhe tehr|nel du la|ter re de|seue nu|||
 z8 | z8 | z8 | z8 | z8 | z8 | z8 | z8 | z8 | z8 | z8 | z8 | z8 | z8 | z8 | z8 | z8 | z8 | z8 | %30
w: |||||||||||||||||||
 z8 | z8 | B2 =A=G A2 z2 | z2 B2 f2 f2 | f2 e2 d2 f2 | g4 fedc | c2 B2 z4 | z2 B2 f2 f2 | %38
w: ||saan * * tu|ki la con|duvi * a lu|bli du * te *|lua *|ki la con|
 f2 e2 d2 d2 | c4 B2 B2 | c4 z4 | z8 | z2 z2 z2 AA | d2 c2 B2 A2 | c4 d2 d2 | d4 c4 | d4 d2 d2 | %47
w: duvi * a lu|bli due te|lua||a sue|pe * plu fi|de lu puhr|tu be|nir ma tu|
 d4 d2 c2 | d8 | z2 A2 d2 c2 | B4 B4 | z2 B2 e2 d2 | c4 c2 c2 | d2 =A2 B2 =d2 | e2 B2 _A2 A2 | %55
w: no ra soam|ble|a * ta|glua ri|im mor *|tehl lu Et|du * te *|don * keel rah|
 =G4 G3 G | A4 _c4 | B2 A2 G2 =G2 | A2 c2 d2 B2 | A4 _G3 G | F6 z2 | z8 | z2 z2 z4 | z8 | z8 | z8 | %66
w: tuh new comb|ble Et|due * te *|don * kil re|tue new com|ble||||||
 z8 | z8 | z8 | z8 | z8 | z8 | z8 | z8 | z8 | z8 | z8 | z8 | z8 | z8 |] %80
w: ||||||||||||||
V:2
 z2 z2 z2 F,>F, | A,4 G,3 G, | F,6 F,2 | z8 | z8 | z8 | z8 | z8 | z8 | B,2 C2 D2 C2 | C4 C2 E2 | %11
w: |||||||||rohn pun lue si|laan sue Di|
 F4 B,4 | A,2 B,2 A,2 =A,2 | B,6 B,2 | B,4 A,2 C2 | D2 =A,2 B,2 =D2 | E2 B,2 _A,2 A,2 | =G,4 G,4 | %18
w: vaan so|vehr Je tue sue|nu le|sue * Di|van * so *|vehr jet ti su|nu le|
 A,4 z4 | z8 | z4 z2 A,2 | A,4 F,4 | =E,2 C2 C2 B,B, | B,2 F2 F2 E2 | E4 D2 F2 | F4 E4 | %26
w: sue||Ri|paan suer|new lu fu du ta|grhaa * su pui|saa ti ku|tu laan|
 C2 F2 F2 E2 | D2 B,2 C2 =D2 | =D3 E E2 z2 | z2 G2 F2 E2 | E2 DC D2 z2 | z2 D2 C2 B,2 | z8 | z8 | %34
w: fer ku tu lean|fer fui yo soan|du ta vua|Di si pu|la som * mail|laan * gi|||
 z8 | z8 | z8 | z8 | z8 | z8 | z8 | z8 | z8 | z8 | z8 | z8 | z8 | z8 | z8 | z8 | z8 | z8 | z8 | %53
w: |||||||||||||||||||
 z8 | z8 | z8 | z8 | z8 | z8 | z8 | z8 | z8 | z2 z2 z2 A,2 | G,2 F,2 E,2 E,2 | F,6 z2 | z8 | %66
w: |||||||||Et|due * te *|don||
 z4 =A,2 _A,2 | B,8 | G,6 G,2 | F,8- | F,8 | z8 | z8 | z8 | z8 | z8 | z8 | z8 | z8 | z8 |] %80
w: kil roh|tue|nu com|ble|||||||||||

